X:1
T:BWV 1068
T:Air
T:J. S. Bach
%%score { 1 | 2 } { 3 | 4 }
L:1/8
Q:1/4=60
M:4/4
K:D
V:1 treble nm="Harpsichord 1"
V:2 bass 
V:3 treble nm="Harpsichord 2"
V:4 bass 
V:1
 f8- | fb/g/ f/4e/4d/c/d/ c2 BA | a4- a/f/=c/B/ e/^d/a/g/ | g4- g/e/B/A/ d/c/g/f/ | %4
 f3 ^g/a/ dd/4e/4f/- f/e/e/d/ | c/B/B/4c/4d/- dc/B/ A4 | f8- | fb/g/ f/4e/4d/c/d/ c2 BA | %8
 a4- a/f/=c/B/ e/^d/a/g/ | g4- g/e/B/A/ d/c/g/f/ | f3 ^g/a/ dd/4e/4f/- f/e/e/d/ | %11
 c/B/B/4c/4d/- dc/B/ A4 | c2- c/d/4c/4B/4c/4A/ a3 =c | Bb- b/a/g/f/ g2- g/4f/4e/4d/4c/B/ | %14
 ^A/B/c- c/d/e- e/f/ g2 f | e/d/c/B/ c/d/4e/4d B4 | d2- d/f/e/d/ b2- ba/^g/ | %17
 f/4e/4a/A B3/2c/4d/4 c>B A2 | d3 f/e/ e3 g/f/ | f2- fa/g/ g4 | A2- A/c/e/g/ g/e/ f2- f/g/4a/4 | %21
 d2- d/f/a/=c'/ b2- bd | c/e/ g2 d Ae/f/4 g3/4fe/ | d/4c/4Bc/ e/4d/4 e/4d/4c/d/ d4 | %24
 c2- c/d/4c/4B/4c/4A/ a3 =c | Bb- b/a/g/f/ g2- g/4f/4e/4d/4c/B/ | ^A/B/c- c/d/e- e/f/ g2 f | %27
 e/d/c/B/ c/d/4e/4d B4 | d2- d/f/e/d/ b3 a/^g/ | f/4e/4a/A B3/2c/4d/4 c>B A2 | d3 f/e/ e3 g/f/ | %31
 f3 a/g/ g4 | A2- A/c/e/g/ g/e/ f2- f/g/4a/4 | d2- d/f/a/=c'/ b3 d | c/e/ g2 d Ae/f/4g/4- g/fe/ | %35
 d/4c/4Bc/ e/4d/4 e/4d/4c/d/ !fermata!d4 |] %36
V:2
 A,4 B,4 | B,,2 E,2 E,4- | E,^D,D,E, F, z z2 | E,B,,B,,E, E, z z2 | D,3 E, F,D,B,,E, | %5
 E,F,B,,E, C,4 | A,4 B,4 | B,,2 E,2 E,4- | E,^D,D,E, F, z z2 | E,B,,B,,E, E, z z2 | %10
 D,3 E, F,D,B,,E, | E,F,B,,E, C,4 | E,4- E,^D,/E,/ F,2- | F,/G,/A,/F,/ ^D,B, B,2 B,,2 | %14
 C,/D,/E,/F,/ G,/F,/G,/E,/ F,E,/D,/ C,F, | F,E,/D,/ G,F,/E,/ D,4 | B,,B, A,/^G,/A, G,>F, E,2- | %17
 E,E,F,E, E,>D, C,/D,/F,/C,/ | A,, D,2 B,,2 E,2 C,- | C, F,2 ^D, B,,2- B,,/B,/G,/E,/ | %20
 A,G,F,E, D,2 A,2- | A,G, A,2 D,4 | E,/B,,/E,/G,/ B,/A,/G,/F,/ E, A,2 G, | F,2 E,A,, A,,4 | %24
 E,4- E,^D,/E,/ F,2- | F,/G,/A,/F,/ ^D,B, B,2 B,,2 | C,/D,/E,/F,/ G,/F,/G,/E,/ F,E,/D,/ C,F, | %27
 F,E,/D,/ G,F,/E,/ D,4 | B,,B, A,/^G,/A, G,>F, E,2- | E,E,F,E, E,>D, C,/D,/F,/C,/ | %30
 A,, D,2 B,,2 E,2 C,- | C, F,2 ^D, B,,2- B,,/B,/G,/E,/ | A,G,F,E, D,2 A,2- | A,G, A,2 D,4 | %34
 E,/B,,/E,/G,/ B,/A,/G,/F,/ E, A,2 G, | F,2 E,A,, !fermata!A,,4 |] %36
V:3
 d8- | d2 B2 A4- | A=c/B/ ca/c/ B z z2 | Be/d/ e/f/g/e/ A z z2 | A4- A^G/A/ BG | AAA^G E4 | d8- | %7
 d2 B2 A4- | A=c/B/ ca/c/ B z z2 | Be/d/ e/f/g/e/ A z z2 | A4- A^G/A/ BG | AAA^G E4 | %12
 A4- A/B/=c- c/B/A/G/ | F3 ^d e4- | e4- e/d/c/B/ ^A/B/c | BBB^A F4 | E2 F2 B,E/F/ ^G/A/B- | %17
 B A2 ^G A4- | AB/=c/ B/^c/ d2 c/B/ c/^d/e- | e^d/c/ d/e/f- f/d/e/B/ E2- | E/C/E/A/ c A2 c/d/ D2- | %21
 DE F2 G4- | GB e2- e/d/c/B/ AB | A2 A/4G/4F/G F4 | A4- A/B/=c- c/B/A/G/ | F2- F^d e4- | %26
 e4- e/d/c/B/ ^A/B/c | BBB^A F4 | E2 F2 B,E/F/ ^G/A/B- | B A2 ^G A4- | %30
 AB/=c/ B/^c/ d2 c/B/ c/^d/e- | e^d/c/ d/e/f- f/d/e/B/ E2- | E/C/E/A/ c A2 c/d/ D2- | DE F2 G4- | %34
 GB e2- e/d/c/B/ AB | A2 A/4G/4F/G !fermata!F4 |] %36
V:4
 D,DCC, B,,B,A,A,, | G,,G,^G,^G,, A,,A,=G,=G,, | F,,F,E,E,, ^D,,^D,B,,B, | E,,E,D,D,, C,,C,A,,A, | %4
 D,DCC, B,,B,^G,E, | A,D,E,E,, A,,/B,,/C,/D,/ E,/G,/F,/E,/ | D,DCC, B,,B,A,A,, | %7
 G,,G,^G,^G,, A,,A,=G,=G,, | F,,F,E,E,, ^D,,^D,B,,B, | E,,E,D,D,, C,,C,A,,A, | D,DCC, B,,B,^G,E, | %11
 A,D,E,E,, A,,4 | A,,A,G,G,, F,,F,E,E,, | ^D,,^D,F,B,, E,ED=D, | C,CB,B,, ^A,,B,,C,A,, | %15
 B,,G,E,F, B,,B,A,A,, | ^G,,^G,F,F,, E,,E,D,D,, | C,,C,D,E, A,,A,G,G,, | F,,F,G,G,, ^G,,^G,A,A,, | %19
 ^A,,^A,B,B,, E,EDD, | C,CA,C DD,=C,=C | B,B,,A,,A, G,G,,F,,F, | E,E,,D,,D, C,A,,D,G, | %23
 A,G,A,A,, D,,4 | A,,A,G,G,, F,,F,E,E,, | ^D,,^D,F,B,, E,ED=D, | C,CB,B,, ^A,,B,,C,A,, | %27
 B,,G,E,F, B,,B,A,A,, | ^G,,^G,F,F,, E,,E,D,D,, | C,,C,D,E, A,,A,G,G,, | F,,F,G,G,, ^G,,^G,A,A,, | %31
 ^A,,^A,B,B,, E,EDD, | C,CA,C DD,=C,=C | B,B,,A,,A, G,G,,F,,F, | E,E,,D,,D, C,A,,D,G, | %35
 A,G,A,A,, !fermata!D,,4 |] %36

